public/images/Coding.svg

<svg width="424" height="424" viewBox="0 0 424 424" fill="none" xmlns="http://www.w3.org/2000/svg">
<g id="Coding 1 1">
<g id="code2">
<path id="Vector" d="M201.96 57.2485H22.0991V237.109H201.96V57.2485Z" fill="#142A6F"/>
<path id="Vector_2" d="M132.441 136.172H74.6665V142.634H132.441V136.172Z" fill="#93CA88"/>
<path id="Vector_3" d="M142.88 118.169H91.228V124.631H142.88V118.169Z" fill="#FFD200"/>
<path id="Vector_4" d="M167.404 186.407H140.463V192.869H167.404V186.407Z" fill="#FFD200"/>
<path id="Vector_5" d="M140.183 168.226H113.242V174.688H140.183V168.226Z" fill="#FFD200"/>
<path id="Vector_6" d="M160.069 151.8H91.228V158.262H160.069V151.8Z" fill="#93CA88"/>
<path id="Vector_7" d="M79.1184 151.8H53.229V158.262H79.1184V151.8Z" fill="white"/>
<path id="Vector_8" d="M104.898 168.777H79.0083V175.239H104.898V168.777Z" fill="white"/>
<path id="Vector_9" d="M80.3738 203.444H54.4844V209.906H80.3738V203.444Z" fill="white"/>
<path id="Vector_10" d="M62.5486 136.172H36.6592V142.634H62.5486V136.172Z" fill="white"/>
<path id="Vector_11" d="M33.8695 71.1897C35.5508 71.1897 36.9138 69.8267 36.9138 68.1454C36.9138 66.4641 35.5508 65.1011 33.8695 65.1011C32.1882 65.1011 30.8252 66.4641 30.8252 68.1454C30.8252 69.8267 32.1882 71.1897 33.8695 71.1897Z" fill="white"/>
<path id="Vector_12" d="M42.9345 71.1897C44.6158 71.1897 45.9788 69.8267 45.9788 68.1454C45.9788 66.4641 44.6158 65.1011 42.9345 65.1011C41.2531 65.1011 39.8901 66.4641 39.8901 68.1454C39.8901 69.8267 41.2531 71.1897 42.9345 71.1897Z" fill="#93CA88"/>
<path id="Vector_13" d="M51.4823 71.1897C53.1636 71.1897 54.5266 69.8267 54.5266 68.1454C54.5266 66.4641 53.1636 65.1011 51.4823 65.1011C49.801 65.1011 48.438 66.4641 48.438 68.1454C48.438 69.8267 49.801 71.1897 51.4823 71.1897Z" fill="#FFD200"/>
<path id="Vector_14" d="M62.5486 87.0049H36.6592V93.4666H62.5486V87.0049Z" fill="white"/>
<path id="Vector_15" d="M79.1184 103.176H53.229V109.638H79.1184V103.176Z" fill="white"/>
<path id="Vector_16" d="M142.88 103.176H91.228V109.638H142.88V103.176Z" fill="#FFD200"/>
<path id="Vector_17" d="M79.1184 118.169H53.229V124.631H79.1184V118.169Z" fill="white"/>
<path id="Vector_18" d="M126.242 87.0049H72.9028V93.4666H126.242V87.0049Z" fill="#93CA88"/>
<path id="Vector_19" d="M63.2781 186.407H37.3887V192.869H63.2781V186.407Z" fill="white"/>
<path id="Vector_20" d="M126.972 186.407H73.6323V192.869H126.972V186.407Z" fill="#93CA88"/>
<path id="Vector_21" d="M143.973 203.41H90.6343V209.871H143.973V203.41Z" fill="#93CA88"/>
<path id="Vector_22" d="M175.265 87.0049H137.393V93.4666H175.265V87.0049Z" fill="#93CA88"/>
<g id="Group" opacity="0.08">
<path id="Vector_23" d="M179.522 139.403C179.522 139.403 162.918 143.838 170.211 168.226C177.504 192.623 182.405 230.927 160.077 236.567H208.328L204.377 174.688L179.522 139.403Z" fill="#000001"/>
</g>
</g>
<g id="code1">
<path id="Vector_24" d="M339.217 38.3804H247.497V101.438H339.217V38.3804Z" fill="#FFD200"/>
<path id="Vector_25" d="M281.036 82.2901C280.578 82.2901 280.111 82.1374 279.721 81.8321L265.967 70.9608C265.458 70.5622 265.161 69.9517 265.161 69.3072C265.161 68.6627 265.449 68.0521 265.95 67.6451L279.704 56.5787C280.62 55.8409 281.952 55.9851 282.689 56.9009C283.427 57.8168 283.283 59.1481 282.367 59.8859L270.69 69.2817L282.35 78.4995C283.274 79.2288 283.427 80.5601 282.698 81.4845C282.282 82.0187 281.655 82.2901 281.027 82.2901H281.036Z" fill="white"/>
<path id="Vector_26" d="M305.933 82.2901C305.305 82.2901 304.686 82.0102 304.262 81.4845C303.533 80.5686 303.694 79.2288 304.61 78.4995L316.27 69.2817L304.593 59.8859C303.677 59.1481 303.533 57.8168 304.271 56.9009C305.008 55.9851 306.34 55.8409 307.256 56.5787L321.01 67.6451C321.51 68.0521 321.807 68.6627 321.799 69.3072C321.799 69.9517 321.502 70.5622 320.993 70.9608L307.239 81.8321C306.849 82.1374 306.382 82.2901 305.924 82.2901H305.933Z" fill="white"/>
<path id="Vector_27" d="M287.709 82.29C287.412 82.29 287.115 82.2306 286.827 82.0949C285.759 81.6116 285.292 80.348 285.776 79.2796L295.791 57.3418C296.282 56.2733 297.537 55.8069 298.606 56.2903C299.674 56.7736 300.141 58.0372 299.657 59.1056L289.643 81.0434C289.286 81.8236 288.515 82.2815 287.709 82.2815V82.29Z" fill="white"/>
</g>
<g id="panel_1">
<path id="Vector_28" d="M404.207 139.886H247.497V230.52H404.207V139.886Z" fill="#E6E6E6"/>
<path id="Vector_29" d="M274.26 177.8C279.285 177.8 283.359 173.726 283.359 168.701C283.359 163.676 279.285 159.602 274.26 159.602C269.235 159.602 265.161 163.676 265.161 168.701C265.161 173.726 269.235 177.8 274.26 177.8Z" fill="#142A6F"/>
<path id="Vector_30" d="M274.26 209.507C279.285 209.507 283.359 205.433 283.359 200.408C283.359 195.383 279.285 191.309 274.26 191.309C269.235 191.309 265.161 195.383 265.161 200.408C265.161 205.433 269.235 209.507 274.26 209.507Z" fill="#93CA88"/>
<g id="Group_2" opacity="0.59">
<path id="Vector_31" d="M377.436 162.494H295.316V173.569H377.436V162.494Z" fill="white"/>
</g>
<g id="Group_3" opacity="0.59">
<path id="Vector_32" d="M377.436 194.54H295.316V205.615H377.436V194.54Z" fill="white"/>
</g>
</g>
<g id="coder">
<path id="Vector_33" d="M148.934 242.07C148.934 242.07 122.901 259.106 100.946 281.349C78.9912 303.592 61.6412 312.861 70.8504 342.134H337.843C337.843 342.134 341.736 322.935 324.029 311.988C306.323 301.04 285.132 254.154 232.344 235.846L148.934 242.07Z" fill="#93CA88"/>
<g id="Group_4" opacity="0.39">
<path id="Vector_34" d="M148.934 242.07C148.934 242.07 122.901 259.106 100.946 281.349C78.9912 303.592 61.6412 312.861 70.8504 342.134H337.843C337.843 342.134 341.736 322.935 324.029 311.988C306.323 301.04 285.132 254.154 232.344 235.846L148.934 242.07Z" fill="white"/>
</g>
<path id="Vector_35" d="M218.233 170.244C218.233 170.244 220.573 164.911 223.753 165.886C226.933 166.861 229.74 180.836 218.555 180.107L218.233 170.244Z" fill="#F4A28C"/>
<path id="Vector_36" d="M198.644 194.328L192.114 229.418H215.901L211.703 194.328H198.644Z" fill="#F4A28C"/>
<path id="Vector_37" d="M190.096 163.189C190.096 163.189 185.05 199.492 202.155 202.74C219.259 205.988 221.599 163.189 221.599 163.189C221.599 163.189 224.364 150.096 214.883 141.582C205.402 133.068 185.712 141.531 190.088 163.189H190.096Z" fill="#F4A28C"/>
<path id="Vector_38" d="M189.723 170.244L187.968 165.445C186.696 161.959 185.178 158.567 183.456 155.277C180.421 149.468 176.045 137.885 184.796 130.999C196.829 121.518 200.84 133.56 208.498 124.622C216.155 115.684 226.73 127.717 228.188 132.457C229.647 137.198 239.857 140.479 236.575 150.325C233.293 160.17 233.234 170.456 221.413 168.777C209.592 167.098 196.957 157.618 196.957 157.618C196.957 157.618 193.573 162.816 189.732 170.244H189.723Z" fill="#FFD200"/>
<path id="Vector_39" d="M197.482 184.355C201.088 184.355 204.012 181.432 204.012 177.825C204.012 174.219 201.088 171.296 197.482 171.296C193.876 171.296 190.953 174.219 190.953 177.825C190.953 181.432 193.876 184.355 197.482 184.355Z" fill="white"/>
<path id="Vector_40" d="M211.864 184.932C215.47 184.932 218.394 182.008 218.394 178.402C218.394 174.796 215.47 171.873 211.864 171.873C208.258 171.873 205.334 174.796 205.334 178.402C205.334 182.008 208.258 184.932 211.864 184.932Z" fill="white"/>
<path id="Vector_41" d="M137.393 353.777C137.393 353.777 87.1402 238.754 192.114 229.417H215.901C215.901 229.417 316.533 243.91 266.458 351.343L137.393 353.777Z" fill="#93CA88"/>
<path id="Vector_42" d="M189.723 170.244C189.723 170.244 187.382 164.911 184.202 165.886C181.022 166.861 179.326 181.633 190.52 180.904L189.723 170.253V170.244Z" fill="#F4A28C"/>
<g id="Group_5" opacity="0.08">
<path id="Vector_43" d="M197.457 200.696C197.457 200.696 204.588 205.021 210.253 200.34C210.253 200.34 210.651 211.186 196.023 208.404L197.457 200.696Z" fill="#000001"/>
</g>
<path id="Vector_44" d="M73.6319 336.766C73.6319 336.766 80.0428 317.44 96.8162 315.252C113.59 313.064 171.924 324.004 171.924 324.004V342.134H70.9268L73.6319 336.766Z" fill="#93CA88"/>
<g id="Group_6" opacity="0.39">
<path id="Vector_45" d="M73.6319 336.766C73.6319 336.766 80.0428 317.44 96.8162 315.252C113.59 313.064 171.924 324.004 171.924 324.004V342.134H70.9268L73.6319 336.766Z" fill="white"/>
</g>
<path id="Vector_46" d="M335.503 336.427C335.503 336.427 329.092 317.101 312.318 314.913C295.545 312.725 237.211 323.664 237.211 323.664V341.794H338.208L335.503 336.427Z" fill="#93CA88"/>
<g id="Group_7" opacity="0.08">
<path id="Vector_47" d="M158.092 284.436H140.462L153.937 337.004L150.884 353.777L173.848 353.048L179.632 304.559L158.092 284.436Z" fill="#000001"/>
</g>
<g id="Group_8" opacity="0.39">
<path id="Vector_48" d="M335.503 336.427C335.503 336.427 329.092 317.101 312.318 314.913C295.545 312.725 237.211 323.664 237.211 323.664V341.794H338.208L335.503 336.427Z" fill="white"/>
</g>
<path id="Vector_49" d="M169.566 323.41L155.074 260.505H255.087L238.831 328.362L237.423 341.795H172.212L169.566 323.41Z" fill="#FFD200"/>
<path id="Vector_50" d="M205.962 298.979C210.748 298.979 214.629 295.099 214.629 290.313C214.629 285.526 210.748 281.646 205.962 281.646C201.176 281.646 197.295 285.526 197.295 290.313C197.295 295.099 201.176 298.979 205.962 298.979Z" fill="white"/>
<path id="Vector_51" d="M356.151 339.683H48.4292V402.774H356.151V339.683Z" fill="#E6E6E6"/>
</g>
</g>
</svg>

<svg xmlns="http://www.w3.org/2000/svg" width="424" height="424" fill="none"><path fill="#142A6F" d="M201.96 57.249H22.1v179.86h179.86z"/><path fill="#93CA88" d="M132.441 136.172H74.667v6.462h57.774z"/><path fill="#FFD200" d="M142.88 118.169H91.228v6.462h51.652zM167.404 186.407h-26.941v6.462h26.941zM140.183 168.226h-26.941v6.462h26.941z"/><path fill="#93CA88" d="M160.069 151.8H91.228v6.462h68.841z"/><path fill="#fff" d="M79.118 151.8H53.23v6.462h25.89zM104.898 168.777h-25.89v6.462h25.89zM80.374 203.444h-25.89v6.462h25.89zM62.549 136.172h-25.89v6.462h25.89zM33.87 71.19a3.044 3.044 0 1 0 0-6.089 3.044 3.044 0 0 0 0 6.089"/><path fill="#93CA88" d="M42.935 71.19a3.044 3.044 0 1 0 0-6.089 3.044 3.044 0 0 0 0 6.089"/><path fill="#FFD200" d="M51.482 71.19a3.044 3.044 0 1 0 0-6.089 3.044 3.044 0 0 0 0 6.089"/><path fill="#fff" d="M62.549 87.005h-25.89v6.462h25.89zM79.118 103.176H53.23v6.462h25.89z"/><path fill="#FFD200" d="M142.88 103.176H91.228v6.462h51.652z"/><path fill="#fff" d="M79.118 118.169H53.23v6.462h25.89z"/><path fill="#93CA88" d="M126.242 87.005h-53.34v6.462h53.34z"/><path fill="#fff" d="M63.278 186.407h-25.89v6.462h25.89z"/><path fill="#93CA88" d="M126.972 186.407h-53.34v6.462h53.34zM143.973 203.41H90.634v6.461h53.339zM175.265 87.005h-37.872v6.462h37.872z"/><path fill="#000001" d="M179.522 139.403s-16.604 4.435-9.311 28.823c7.293 24.397 12.194 62.701-10.134 68.341h48.251l-3.951-61.879z" opacity=".08"/><path fill="#FFD200" d="M339.217 38.38h-91.72v63.058h91.72z"/><path fill="#fff" d="M281.036 82.29c-.458 0-.925-.153-1.315-.458l-13.754-10.871a2.1 2.1 0 0 1-.806-1.654c0-.644.288-1.255.789-1.662l13.754-11.066a2.12 2.12 0 0 1 2.985.322 2.12 2.12 0 0 1-.322 2.985l-11.677 9.396 11.66 9.218a2.12 2.12 0 0 1 .348 2.984 2.1 2.1 0 0 1-1.671.806zM305.933 82.29c-.628 0-1.247-.28-1.671-.806a2.13 2.13 0 0 1 .348-2.984l11.66-9.218-11.677-9.396a2.12 2.12 0 0 1-.322-2.985 2.12 2.12 0 0 1 2.985-.322l13.754 11.066c.5.407.797 1.018.789 1.662 0 .645-.297 1.255-.806 1.654l-13.754 10.871c-.39.305-.857.458-1.315.458zM287.709 82.29c-.297 0-.594-.06-.882-.195a2.126 2.126 0 0 1-1.051-2.815l10.015-21.938a2.13 2.13 0 0 1 2.815-1.052 2.126 2.126 0 0 1 1.051 2.816l-10.014 21.937a2.12 2.12 0 0 1-1.934 1.238z"/><path fill="#E6E6E6" d="M404.207 139.886h-156.71v90.634h156.71z"/><path fill="#142A6F" d="M274.26 177.8a9.1 9.1 0 1 0 0-18.199 9.1 9.1 0 0 0 0 18.199"/><path fill="#93CA88" d="M274.26 209.507a9.1 9.1 0 1 0 0-18.199 9.1 9.1 0 0 0 0 18.199"/><path fill="#fff" d="M377.436 162.494h-82.12v11.075h82.12zM377.436 194.54h-82.12v11.075h82.12z" opacity=".59"/><path fill="#93CA88" d="M148.934 242.07s-26.033 17.036-47.988 39.279-39.305 31.512-30.096 60.785h266.993s3.893-19.199-13.814-30.146c-17.706-10.948-38.897-57.834-91.685-76.142z"/><path fill="#fff" d="M148.934 242.07s-26.033 17.036-47.988 39.279-39.305 31.512-30.096 60.785h266.993s3.893-19.199-13.814-30.146c-17.706-10.948-38.897-57.834-91.685-76.142z" opacity=".39"/><path fill="#F4A28C" d="M218.233 170.244s2.34-5.333 5.52-4.358 5.987 14.95-5.198 14.221zM198.644 194.328l-6.53 35.09h23.787l-4.198-35.09z"/><path fill="#F4A28C" d="M190.096 163.189s-5.046 36.303 12.059 39.551c17.104 3.248 19.444-39.551 19.444-39.551s2.765-13.093-6.716-21.607-29.171-.051-24.795 21.607z"/><path fill="#FFD200" d="m189.723 170.244-1.755-4.799a84 84 0 0 0-4.512-10.168c-3.035-5.809-7.411-17.392 1.34-24.278 12.033-9.481 16.044 2.561 23.702-6.377 7.657-8.938 18.232 3.095 19.69 7.835s11.669 8.022 8.387 17.868-3.341 20.131-15.162 18.452-24.456-11.159-24.456-11.159-3.384 5.198-7.225 12.626z"/><path fill="#fff" d="M197.482 184.355a6.53 6.53 0 1 0 0-13.06 6.53 6.53 0 0 0 0 13.06M211.864 184.932a6.53 6.53 0 1 0-.001-13.061 6.53 6.53 0 0 0 .001 13.061"/><path fill="#93CA88" d="M137.393 353.777s-50.253-115.023 54.721-124.36h23.787s100.632 14.493 50.557 121.926z"/><path fill="#F4A28C" d="M189.723 170.244s-2.341-5.333-5.521-4.358-4.876 15.747 6.318 15.018l-.797-10.651z"/><path fill="#000001" d="M197.457 200.696s7.131 4.325 12.796-.356c0 0 .398 10.846-14.23 8.064z" opacity=".08"/><path fill="#93CA88" d="M73.632 336.766s6.41-19.326 23.184-21.514 75.108 8.752 75.108 8.752v18.13H70.927z"/><path fill="#fff" d="M73.632 336.766s6.41-19.326 23.184-21.514 75.108 8.752 75.108 8.752v18.13H70.927z" opacity=".39"/><path fill="#93CA88" d="M335.503 336.427s-6.411-19.326-23.185-21.514c-16.773-2.188-75.107 8.751-75.107 8.751v18.13h100.997z"/><path fill="#000001" d="M158.092 284.436h-17.63l13.475 52.568-3.053 16.773 22.964-.729 5.784-48.489z" opacity=".08"/><path fill="#fff" d="M335.503 336.427s-6.411-19.326-23.185-21.514c-16.773-2.188-75.107 8.751-75.107 8.751v18.13h100.997z" opacity=".39"/><path fill="#FFD200" d="m169.566 323.41-14.492-62.905h100.013l-16.256 67.857-1.408 13.433h-65.211z"/><path fill="#fff" d="M205.962 298.979a8.667 8.667 0 1 0 0-17.334 8.667 8.667 0 0 0 0 17.334"/><path fill="#E6E6E6" d="M356.151 339.683H48.429v63.091h307.722z"/></svg>
